icons/core/folder-shared.svg

<svg width="32" height="32" viewBox="0 0 32 32" xmlns="http://www.w3.org/2000/svg"><path fill-rule="evenodd" clip-rule="evenodd" d="M2.00024 6.00017C2.00024 4.89559 2.89567 4.00015 4.00024 4.00015H10.5863C11.1167 4.00015 11.6254 4.21087 12.0005 4.58594L15.4147 8.00018H28.0003C29.1049 8.00018 30.0003 8.89561 30.0003 10.0002V26C30.0003 27.1046 29.1049 28 28.0003 28H4.00038C2.89582 28 2.00039 27.1046 2.00038 26L2.00024 6.00017ZM4.00024 6.00015L4.00038 26H14.0002C14.0002 23.7909 15.7911 22 18.0002 22H22.0002C24.2094 22 26.0002 23.7909 26.0002 26L28.0003 26V10.0002H15.4147C14.8843 10.0002 14.3756 9.78947 14.0005 9.41439L10.5863 6.00015H4.00024ZM22.0002 24C23.1048 24 24.0002 24.8955 24.0002 26H16.0002C16.0002 24.8955 16.8957 24 18.0002 24H22.0002ZM22.0002 17C22.0002 18.1046 21.1048 19 20.0002 19C18.8957 19 18.0002 18.1046 18.0002 17C18.0002 15.8955 18.8957 15 20.0002 15C21.1048 15 22.0002 15.8955 22.0002 17ZM24.0002 17C24.0002 19.2092 22.2094 21 20.0002 21C17.7911 21 16.0002 19.2092 16.0002 17C16.0002 14.7909 17.7911 13 20.0002 13C22.2094 13 24.0002 14.7909 24.0002 17Z"/></svg>

<svg viewBox="0 0 32 32" xmlns="http://www.w3.org/2000/svg"><path fill-rule="evenodd" d="M2 6a2 2 0 012-2h6.586a2 2 0 011.415.586L15.415 8H28a2 2 0 012 2v16a2 2 0 01-2 2H4a2 2 0 01-2-2V6zm2 0v20h10a4 4 0 014-4h4a4 4 0 014 4h2V10H15.415A2 2 0 0114 9.414L10.585 6H4zm18 18a2 2 0 012 2h-8a2 2 0 012-2h4zm0-7a2 2 0 11-4 0 2 2 0 014 0zm2 0a4 4 0 11-8 0 4 4 0 018 0z"/></svg>
